X: 26142
T: McHugh's
R: reel
M: 4/4
K: Edorian
|:B2BA BeeB|dBAG (3FGA D2|B2BA BeeB|1 dBAF FEEA:|2 dBAF FEEd||
edBd efge|fdd2 fdd2|edBd efge|fedf ~e3d|
edBd efge|fdad bdad|~g3e ~f3d|edBd e4||

